material/.icons/material/bus-multiple.svg

<svg xmlns="http://www.w3.org/2000/svg" viewBox="0 0 24 24"><path d="M10 5c-4.42 0-8 .5-8 4v10c0 .85.37 1.66 1 2.22V23c0 .55.45 1 1 1h1c.55 0 1-.45 1-1v-1h8v1c0 .55.45 1 1 1h1c.55 0 1-.45 1-1v-1.78c.63-.56 1-1.37 1-2.22V9c0-3.5-3.58-4-8-4M5.5 20c-.83 0-1.5-.67-1.5-1.5S4.67 17 5.5 17s1.5.67 1.5 1.5S6.33 20 5.5 20m9 0c-.83 0-1.5-.67-1.5-1.5s.67-1.5 1.5-1.5 1.5.67 1.5 1.5-.67 1.5-1.5 1.5m1.5-6H4V9h12v5m6-9v10c0 .85-.37 1.66-1 2.22V19c0 .55-.45 1-1 1h-.12c.07-.32.12-.65.12-1V9c0-6-7-6-10-6-.91 0-2.2 0-3.54.17C7.55 1.32 10.5 1 14 1c4.42 0 8 .5 8 4z"/></svg>

<?xml version="1.0" encoding="UTF-8"?><!DOCTYPE svg PUBLIC "-//W3C//DTD SVG 1.1//EN" "http://www.w3.org/Graphics/SVG/1.1/DTD/svg11.dtd"><svg xmlns="http://www.w3.org/2000/svg" xmlns:xlink="http://www.w3.org/1999/xlink" version="1.1" id="mdi-bus-multiple" width="24" height="24" viewBox="0 0 24 24"><path d="M10 5C5.58 5 2 5.5 2 9V19C2 19.85 2.37 20.66 3 21.22V23C3 23.55 3.45 24 4 24H5C5.55 24 6 23.55 6 23V22H14V23C14 23.55 14.45 24 15 24H16C16.55 24 17 23.55 17 23V21.22C17.63 20.66 18 19.85 18 19V9C18 5.5 14.42 5 10 5M5.5 20C4.67 20 4 19.33 4 18.5S4.67 17 5.5 17 7 17.67 7 18.5 6.33 20 5.5 20M14.5 20C13.67 20 13 19.33 13 18.5S13.67 17 14.5 17 16 17.67 16 18.5 15.33 20 14.5 20M16 14H4V9H16V14M22 5V15C22 15.85 21.63 16.66 21 17.22V19C21 19.55 20.55 20 20 20H19.88C19.95 19.68 20 19.35 20 19V9C20 3 13 3 10 3C9.09 3 7.8 3 6.46 3.17C7.55 1.32 10.5 1 14 1C18.42 1 22 1.5 22 5Z" /></svg>
